X:1
T:Title
%%score { 1 | ( 2 3 ) }
L:1/8
M:4/4
K:C
V:1 treble nm="Grand Piano"
V:2 bass 
V:3 bass 
V:1
 z4[Q:1/4=92] [CE][DF][EG][FA] | [EG]2 G2 AGAB | [Ec]2 [EG]2 [Ge]2 [Ec]2 | %3
 [G,CG]2 [G,CE]2 [A,CF]2 [A,CA]2 | [G,B,D]4 [Fd]3 [FB] | [Ec]2 G2 d3 B | [Ec]2 [EG]2 [Ge]2 [Fd]2 | %7
 [Ec]2 [^GB]2 A2 G2 | A4 [Ac][^GB][Ac]A | G3 E [DF]E[G,DF][K:bass][B,D] |[M:2/4] [E,C]4 |] %11
V:2
 z4 [C,G,]2 [C,C]2 | z4 .F2 F2 | [C,G,]2 [C,C]2 [C,C]2 [C,G,]2 | E,2 C,_B,, A,,2 F,,2 | %4
 G,,4 [G,B,]3 [G,D] | [C,C]2 [E,C]2[K:treble] [G,B,F]3 [G,DF] | [C,C]2 [C,C]2 [C,C]2 [G,B,]2 | %7
 [A,C]2 [E,D]2 [F,CF]2 [F,B,F]2 | [F,CF]4 [F,C]2 z[K:treble] F | [G,CE]3[K:bass] [G,C] z C z F, | %10
[M:2/4] C,4 |] %11
V:3
 x8 | [C,C]2 [E,C]2 [F,C]-[F,CE][F,C][D,G,] | x8 | x8 | x8 | x4[K:treble] x4 | x8 | x8 | %8
 z4 z2 [F,C]2[K:treble] | z4[K:bass] [G,,G,]2 G,,2 |[M:2/4] x4 |] %11

